context/brand-context/default/img/icons/citation.svg

<svg id="i-citation" viewBox="0 0 18 18" xmlns="http://www.w3.org/2000/svg"><path d="m8.63593473 5.99995183c2.20913897 0 3.99999997 1.79084375 3.99999997 3.99996146 0 1.40730761-.7267788 2.64486871-1.8254829 3.35783281 1.6240224.6764218 2.8754442 2.0093871 3.4610603 3.6412466l-1.0763845.000006c-.5310008-1.2078237-1.5108121-2.1940153-2.7691712-2.7181346l-.79002167-.329052v-1.023992l.63016577-.4089232c.8482885-.5504661 1.3698342-1.4895187 1.3698342-2.51898361 0-1.65683828-1.3431457-2.99996146-2.99999997-2.99996146-1.65685425 0-3 1.34312318-3 2.99996146 0 1.02946491.52154569 1.96851751 1.36983419 2.51898361l.63016581.4089232v1.023992l-.79002171.329052c-1.25835905.5241193-2.23817037 1.5103109-2.76917113 2.7181346l-1.07638453-.000006c.58561612-1.6318595 1.8370379-2.9648248 3.46106024-3.6412466-1.09870405-.7129641-1.82548287-1.9505252-1.82548287-3.35783281 0-2.20911771 1.790861-3.99996146 4-3.99996146zm7.36897597-4.99995183c1.1018574 0 1.9950893.89353404 1.9950893 2.00274083v5.994422c0 1.10608317-.8926228 2.00274087-1.9950893 2.00274087l-3.0049107-.0009037v-1l3.0049107.00091329c.5490631 0 .9950893-.44783123.9950893-1.00275046v-5.994422c0-.55646537-.4450595-1.00275046-.9950893-1.00275046h-14.00982141c-.54906309 0-.99508929.44783123-.99508929 1.00275046v5.9971821c0 .66666024.33333333.99999036 1 .99999036l2-.00091329v1l-2 .0009037c-1 0-2-.99999041-2-1.99998077v-5.9971821c0-1.10608322.8926228-2.00274083 1.99508929-2.00274083zm-8.5049107 2.9999711c.27614237 0 .5.22385547.5.5 0 .2761349-.22385763.5-.5.5h-4c-.27614237 0-.5-.2238651-.5-.5 0-.27614453.22385763-.5.5-.5zm3 0c.2761424 0 .5.22385547.5.5 0 .2761349-.2238576.5-.5.5h-1c-.27614237 0-.5-.2238651-.5-.5 0-.27614453.22385763-.5.5-.5zm4 0c.2761424 0 .5.22385547.5.5 0 .2761349-.2238576.5-.5.5h-2c-.2761424 0-.5-.2238651-.5-.5 0-.27614453.2238576-.5.5-.5z" fill="currentColor" fill-rule="evenodd"/></svg>

<svg id="i-citation" viewBox="0 0 18 18" xmlns="http://www.w3.org/2000/svg"><path d="M8.636 6a4 4 0 0 1 2.174 7.358 6.227 6.227 0 0 1 3.462 3.641h-1.077a5.218 5.218 0 0 0-2.769-2.718l-.79-.33v-1.023l.63-.41a3 3 0 1 0-3.26 0l.63.41v1.024l-.79.329a5.218 5.218 0 0 0-2.77 2.718H3a6.227 6.227 0 0 1 3.461-3.641A4 4 0 0 1 8.636 6zm7.369-5C17.107 1 18 1.894 18 3.003v5.994A1.999 1.999 0 0 1 16.005 11L13 10.999v-1h3.005c.549 0 .995-.447.995-1.002V3.003A.997.997 0 0 0 16.005 2H1.995A.999.999 0 0 0 1 3.003V9c0 .667.333 1 1 1l2-.001v1H2c-1 0-2-1-2-2V3.004C0 1.897.893 1 1.995 1zM7.5 4a.5.5 0 1 1 0 1h-4a.5.5 0 0 1 0-1zm3 0a.5.5 0 1 1 0 1h-1a.5.5 0 0 1 0-1zm4 0a.5.5 0 1 1 0 1h-2a.5.5 0 0 1 0-1z" fill="currentColor" fill-rule="evenodd"/></svg>
